X:21036 
T:COOLEEN BRIDGE (reel)
B:DMI.0780
Z:Nordberg/Black
N:This is "The Tarbolton" as a single reel.
R:reel
%Q:1/4=180
M:C
L:1/8
K:Em
F|Eeed e2BA|GBAF GEEF|Dddc d2AF|GBAG FDDF|
Eeed efga|fedf eBBA|G2BG FGAc|BGAF GEE||
f|gfef gebe|geba geec|defg a2fd|gefd edBA|
G2BG F2AF|Eeed e3f|gefd edBc|dBAF GEHE2|]

%%%

